!! 00000] TT[WS
!!!OTL: Ku zhangfu
!!!ARE: Asia, China, Shanxi Zouquan
!! Ethnic Group: Han
!! WI, 204
!!!SCT: J0240
!!!YEM: Copyright 1995, estate of Helmut Schaffrath.
**kern
*ICvox
*Ivox
!! 5/82+3 metric grouping
!! Mixed meters:  3/8; 4/8
*MZ
*k[f#]
*G:
{8dd
8dd
16a
16e
=1
16g
16a
4dd
=2
8g
8ee
8dd
=3
16b
16a
8g
4.b}
{8a
8f#
8e
=4
8G
16e
16d
4B
=5
8.a
16g
8a
4a
=6
8dd
8g
8f#
8e
=7
16d
16e
4d}
==
!!!AGN: Xiaodiao. Qingge, Aisu
!!!ONB: ESAC (Essen Associative Code) Database: CHINA
!!!AMT: irregular
!!!AIN: vox
!!!EED: Helmut Schaffrath
!!!EEV: 1.0
*-
